X:6
T: LEBE WOHL VERGISS MEIN NICHT
N: B0494
O: Europa, Mitteleuropa, Deutschland, Weimar
R: Abschieds - Lied
M: 4/4
L: 1/8
K: F
AB | c3fG2c2 | F2z4
AF | FEE2c3E | GFF2z2
AF | FEE2c3E | GFF2z2
FF | d3dc2de | f2z6
c2f2d3d | c2E2F2

